clients/components/icon/svgs/qxp_ui/home_add_task.svg

<svg width="20" height="20" viewBox="0 0 20 20" fill="none" xmlns="http://www.w3.org/2000/svg">
<path fill-rule="evenodd" clip-rule="evenodd" d="M4.16406 9.85677L9.9974 4.02344L15.8307 9.85677V18.2927L11.6641 18.2927V14.126C11.6641 13.2055 10.9179 12.4593 9.9974 12.4593C9.07692 12.4593 8.33073 13.2055 8.33073 14.126V18.2927L4.16406 18.2927V9.85677Z" fill="#B5CCFF"/>
<path d="M9.9971 4.02353L2.84453 11.1761L1.66602 9.99759L9.9971 1.6665L18.3282 9.99759L17.1497 11.1761L9.9971 4.02353Z" fill="#475569"/>
<path fill-rule="evenodd" clip-rule="evenodd" d="M9.99674 12.4595C10.9172 12.4595 11.6634 13.2057 11.6634 14.1261V18.2928H8.33008V14.1261C8.33008 13.2057 9.07627 12.4595 9.99674 12.4595Z" fill="#475569"/>
</svg>

<svg width="20" height="20" fill="none" xmlns="http://www.w3.org/2000/svg"><path fill-rule="evenodd" clip-rule="evenodd" d="M4.164 9.857l5.834-5.833 5.833 5.833v8.436h-4.167v-4.167a1.667 1.667 0 10-3.333 0v4.167H4.164V9.857z" fill="#94A3B8"/><path d="M9.998 4.024l-7.153 7.152-1.178-1.178 8.33-8.331 8.332 8.33-1.179 1.18-7.152-7.153z" fill="#475569"/><path fill-rule="evenodd" clip-rule="evenodd" d="M9.997 12.46c.921 0 1.667.746 1.667 1.666v4.167H8.331v-4.167c0-.92.746-1.666 1.666-1.666z" fill="#475569"/></svg>
